X: 19968
T: Jim Coleman's
R: hornpipe
M: 4/4
K: Gmajor
|:BA|(3GAG (3FGF E2AG|(3GAG (3FGF E2AG|(3FGF (3EFE D2AG|(3FGF (3EFE D2 Bd|
edce dcBd|cBAc B2EF|GFGB AFDF|1 E2ED E2:|2 E2ED E2Bd||
e2dc BGE2|e2dc B2Bc|dcdB AFD2|dcdB A2Bd|
edce dcBd|cBAc B2EF|GFGB AFDF|1 E2ED E2Bd:|2 E2ED E2||

